svgs/thin/pallet.svg

<svg xmlns="http://www.w3.org/2000/svg" viewBox="0 0 640 512"><!--! Font Awesome Pro 6.6.0 by @fontawesome - https://fontawesome.com License - https://fontawesome.com/license (Commercial License) Copyright 2024 Fonticons, Inc. --><path d="M8 352c-4.4 0-8 3.6-8 8s3.6 8 8 8l72 0 0 128L8 496c-4.4 0-8 3.6-8 8s3.6 8 8 8l80 0 232 0 232 0 80 0c4.4 0 8-3.6 8-8s-3.6-8-8-8l-72 0 0-128 72 0c4.4 0 8-3.6 8-8s-3.6-8-8-8l-80 0-232 0L88 352 8 352zm88 16l216 0 0 128L96 496l0-128zm232 0l216 0 0 128-216 0 0-128z"/></svg>

<svg xmlns="http://www.w3.org/2000/svg" viewBox="0 0 640 512"><!--! Font Awesome Pro 6.4.0 by @fontawesome - https://fontawesome.com License - https://fontawesome.com/license (Commercial License) Copyright 2023 Fonticons, Inc. --><path d="M8 352c-4.4 0-8 3.6-8 8s3.6 8 8 8H80V496H8c-4.4 0-8 3.6-8 8s3.6 8 8 8H88 320 552h80c4.4 0 8-3.6 8-8s-3.6-8-8-8H560V368h72c4.4 0 8-3.6 8-8s-3.6-8-8-8H552 320 88 8zm88 16H312V496H96V368zm232 0H544V496H328V368z"/></svg>
